X:58
T:Farandole des Gavots
O:France
A:Provence
C:Trad.
R:Farandole
M:6/8
Q:3/8=90
K:Bbmajor
fgf|f2d f2b|f3 def|edc cBc|d2B fgf|f2d f2b|f3 def|gfe d2c|B3 d2f|
c2d edc|d2B d2f|c2d edc|B3 d2f|c2d edc|d2B d2f|=e2f gag|f3|]
%%footer $D   Galouvielle-MBe 2005 \nFarandole France
